public/assets/img/icons/civil-structureal-works.svg

<svg id="e1SmKYXp2Qs1" xmlns="http://www.w3.org/2000/svg" xmlns:xlink="http://www.w3.org/1999/xlink" viewBox="0 0 48 48" shape-rendering="geometricPrecision" text-rendering="geometricPrecision" project-id="c0a524fb9e6743fe896bfb53eb41428e" export-id="da385b12f3d94770a5212f13f6c6295d" cached="false">
<style><![CDATA[
#e1SmKYXp2Qs2 {animation: e1SmKYXp2Qs2_s_do 3000ms linear infinite normal forwards}@keyframes e1SmKYXp2Qs2_s_do { 0% {stroke-dashoffset: 118.41} 33.333333% {stroke-dashoffset: 0} 100% {stroke-dashoffset: 0}}
]]></style>
<path id="e1SmKYXp2Qs2" d="M32.5767,27.9209c0,2.2193-.8366,4.4299-2.5098,6.1229-3.3464,3.3861-8.7799,3.3861-12.1264,0-1.6732-1.693-2.5098-3.9036-2.5098-6.1229h-8.38358v2.8509c.01761.5176.43151.9387.94228.9474h3.3904c.2554.8772.5989,1.7194,1.0304,2.5176l-2.3953,2.4211c-.36991.3685-.36991.9737,0,1.3422l3.998,4.0352c.3699.3684.9599.3684,1.3298,0l2.3953-2.4211c.7926.4298,1.6292.7807,2.4922,1.0438v4.4124c0,.4649.3699.8421.8366.8421h5.865c.4579,0,.8366-.3772.8366-.8421v-4.4124c.863-.2631,1.6996-.6052,2.501-1.0438l2.3953,2.4211c.3699.3684.9599.3684,1.3298,0l3.9981-4.0352c.3698-.3685.3698-.9737,0-1.3422l-2.3954-2.4211c.4315-.7982.775-1.6491,1.0304-2.5176h3.3904c.5196,0,.9423-.4298.9423-.9474v-2.8509h-8.3748-.0088Z" fill="none" stroke="#ee3524" stroke-width="1.5" stroke-linecap="round" stroke-linejoin="round" stroke-dashoffset="118.41" stroke-dasharray="118.41"/><path d="M45.9297,27.9216h-43.85548l.70451-4.9299h42.44647l.7045,4.9299Z" fill="none" stroke="#ee3524" stroke-width="1.5" stroke-linecap="round" stroke-linejoin="round"/><path d="M27.5543,4.2536v-2.18426h-7.1243v2.18426C11.562,5.9203,4.85156,13.6749,4.85156,22.9909h38.28994c0-9.3248-6.7104-17.0706-15.5872-18.7373Z" fill="none" stroke="#ee3524" stroke-width="1.5" stroke-linecap="round" stroke-linejoin="round"/></svg>

<svg width="48" height="48" viewBox="0 0 48 48" fill="none" xmlns="http://www.w3.org/2000/svg">
<path d="M32.5767 27.9209C32.5767 30.1402 31.7401 32.3508 30.0669 34.0438C26.7205 37.4299 21.287 37.4299 17.9405 34.0438C16.2673 32.3508 15.4307 30.1402 15.4307 27.9209H7.04712V30.7718C7.06473 31.2894 7.47863 31.7105 7.9894 31.7192H11.3798C11.6352 32.5964 11.9787 33.4386 12.4102 34.2368L10.0149 36.6579C9.64499 37.0264 9.64499 37.6316 10.0149 38.0001L14.0129 42.0353C14.3828 42.4037 14.9728 42.4037 15.3427 42.0353L17.738 39.6142C18.5306 40.044 19.3672 40.3949 20.2302 40.658V45.0704C20.2302 45.5353 20.6001 45.9125 21.0668 45.9125H26.9318C27.3897 45.9125 27.7684 45.5353 27.7684 45.0704V40.658C28.6314 40.3949 29.468 40.0528 30.2694 39.6142L32.6647 42.0353C33.0346 42.4037 33.6246 42.4037 33.9945 42.0353L37.9926 38.0001C38.3624 37.6316 38.3624 37.0264 37.9926 36.6579L35.5972 34.2368C36.0287 33.4386 36.3722 32.5877 36.6276 31.7192H40.018C40.5376 31.7192 40.9603 31.2894 40.9603 30.7718V27.9209H32.5855H32.5767Z" stroke="#EE3524" stroke-width="1.5" stroke-linecap="round" stroke-linejoin="round"/>
<path d="M45.9297 27.9216H2.07422L2.77873 22.9917H45.2252L45.9297 27.9216Z" stroke="#EE3524" stroke-width="1.5" stroke-linecap="round" stroke-linejoin="round"/>
<path d="M27.5543 4.2536V2.06934H20.43V4.2536C11.562 5.9203 4.85156 13.6749 4.85156 22.9909H43.1415C43.1415 13.6661 36.4311 5.9203 27.5543 4.2536Z" stroke="#EE3524" stroke-width="1.5" stroke-linecap="round" stroke-linejoin="round"/>
</svg>
